X:1238
T:Arie
C:Joh. Siegismund Scholze
O:Germany
Z:Transcribed by Frank Nordberg - http://www.musicaviva.com
F:http://abc.musicaviva.com/tunes/scholze-joh-siegismund/scholze-arie-01/scholze-arie-01-pno2.abc
V:1 Program 1 6 %Harpsichord
V:2 Program 1 6 bass %Harpsichord
M:2/4
L:1/16
K:C
V:1
gf|e2ed c2B2|c3d/e/ d2gf|e2ed c2B2|c3d/e/ d2G2|
V:2
z2|z2 G,F, E,2D,2|E,2C,2 G,2 z2|z2 G,F, E,2D,2|E,2C,2G,2G,,2|
%
V:1
e2ed c2cB|A2Bc B2AG|e2ed c2cB|A2Bc B2AG|B2cd c3e|
V:2
C,3D, E,2E,D,|C,2D,2G,2G,,2|C,3D, E,2E,D,|C,2D,2G,2G,,2|^G,2E,2A,2A,,2|
%
V:1
d2ef e3c|A2fd B2ge|c3B/A/ G2d2|e2c2 G2cB|c2C2 z2|]
V:2
B,,2G,,2C,2C,2|F,2D,2G,2E,2|A,2D,2B,,2G,,2|C,2E,F, G,2G,,2|C,2C,2 z2|]
W:
W:
W:  From Musica Viva - http://www.musicaviva.com
W:  the Internet center for free sheet music downloads.
